icons/circle/48/epoptes.svg

<svg xmlns="http://www.w3.org/2000/svg" xmlns:xlink="http://www.w3.org/1999/xlink" viewBox="0 0 48 48">
  <defs>
    <linearGradient id="b" x1="1" x2="47" gradientUnits="userSpaceOnUse" gradientTransform="rotate(-90 24 24)">
      <stop stop-color="#96d250"/>
      <stop offset="1" stop-color="#a0d660"/>
    </linearGradient>
    <radialGradient xlink:href="#a" id="c" cx="19.4" cy="24" r="2" gradientUnits="userSpaceOnUse" gradientTransform="translate(4.6)"/>
    <linearGradient id="a">
      <stop stop-color="#fff" stop-opacity=".196"/>
      <stop offset="1" stop-color="#fff" stop-opacity=".098"/>
    </linearGradient>
    <radialGradient xlink:href="#a" id="d" cx="17.5" cy="20.5" r="3.75" gradientUnits="userSpaceOnUse" gradientTransform="translate(10)"/>
  </defs>
  <path d="M36.31 5c5.859 4.062 9.688 10.831 9.688 18.5 0 12.426-10.07 22.5-22.5 22.5-7.669 0-14.438-3.828-18.5-9.688a23.24 23.24 0 0 0 3.781 4.969 22.923 22.923 0 0 0 15.469 5.969c12.703 0 23-10.298 23-23a22.92 22.92 0 0 0-5.969-15.469A23.216 23.216 0 0 0 36.31 5zm4.969 3.781A22.911 22.911 0 0 1 47.498 24.5c0 12.703-10.297 23-23 23a22.909 22.909 0 0 1-15.719-6.219C12.939 45.425 18.662 48 24.998 48c12.703 0 23-10.298 23-23 0-6.335-2.575-12.06-6.719-16.219z" opacity=".05"/>
  <path d="M41.28 8.781a22.923 22.923 0 0 1 5.969 15.469c0 12.703-10.297 23-23 23A22.92 22.92 0 0 1 8.78 41.281 22.911 22.911 0 0 0 24.499 47.5c12.703 0 23-10.298 23-23A22.909 22.909 0 0 0 41.28 8.781z" opacity=".1"/>
  <path d="M31.25 2.375C39.865 5.529 46 13.792 46 23.505c0 12.426-10.07 22.5-22.5 22.5-9.708 0-17.971-6.135-21.12-14.75a23 23 0 0 0 44.875-7 23 23 0 0 0-16-21.875z" opacity=".2"/>
  <path d="M24 1c12.703 0 23 10.297 23 23S36.703 47 24 47 1 36.703 1 24 11.297 1 24 1z" fill="url(#b)"/>
  <path d="M40.03 7.531A22.922 22.922 0 0 1 45.999 23c0 12.703-10.297 23-23 23A22.92 22.92 0 0 1 7.53 40.031C11.708 44.322 17.54 47 23.999 47c12.703 0 23-10.298 23-23 0-6.462-2.677-12.291-6.969-16.469z" opacity=".1"/>
  <path d="M40 25c0 8.285-6.715 15-15 15s-15-6.715-15-15 6.715-15 15-15 15 6.715 15 15m0 0" opacity=".1"/>
  <g>
    <path d="M39 24c0 8.285-6.715 15-15 15S9 32.285 9 24 15.715 9 24 9s15 6.715 15 15m0 0" fill="#333"/>
    <path d="M36.5 24c0 6.906-5.598 12.5-12.5 12.5S11.5 30.902 11.5 24 17.098 11.5 24 11.5c6.906 0 12.5 5.598 12.5 12.5m0 0" fill="#45a326"/>
    <path d="M24 24V11.5L25.25 24M24 24H11.5L24 22.754M24 24" fill="#784420"/>
    <path d="M24 24l3.234 12.07-4.441-11.75M24 24l-3.234-12.07 4.441 11.75M24 24.004" fill="#333"/>
    <path d="M24 24l12.07-3.234-11.75 4.441M24 24l-12.07 3.238 11.75-4.441M24.004 24" fill="#333"/>
    <path d="M24 24l6.25 10.824-7.332-10.199M24 24l-6.25-10.824 7.332 10.199M24 24l10.824-6.25-10.199 7.332M24 24l-10.824 6.25 10.199-7.328M24 24" fill="#333"/>
    <path d="M24 24l8.84 8.84-9.723-7.957M24 24l-8.84-8.84 9.723 7.957M24 24" fill="#784420"/>
    <path d="M24 24l8.84-8.84-7.957 9.723M24 24l-8.84 8.836 7.957-9.723M24 24" fill="#784420"/>
    <path d="M24 24l10.824 6.25-11.449-5.168M24 24l-10.824-6.25 11.449 5.168M24 24" fill="#333"/>
    <path d="M24 24l6.25-10.824-5.168 11.449M24 24l-6.25 10.824 5.168-11.449M24 24" fill="#333"/>
    <path d="M24 24l12.07 3.234-12.398-2.027M24 24l-12.07-3.234 12.398 2.027M24.004 24" fill="#333"/>
    <path d="M24 24l3.234-12.07-2.027 12.398M24 24l-3.234 12.07 2.027-12.395m1.207.324" fill="#333"/>
    <path d="M23.993 24.06h12.496L23.99 25.309m0-1.25" fill="#784420"/>
    <path d="M23.993 24.06v12.496l-1.249-12.499m1.25 0" fill="#784420"/>
    <path d="M30.25 24A6.248 6.248 0 0 1 24 30.25 6.251 6.251 0 1 1 30.25 24m0 0" fill="#333"/>
    <path d="M29 24a5 5 0 0 1-5 5 5 5 0 0 1-5-5 5 5 0 0 1 5-5 5 5 0 0 1 5 5m0 0" fill="#aa8600"/>
    <circle r="2" cy="24" cx="24" fill="url(#c)" fill-rule="evenodd"/>
    <circle r="3.75" cy="20.5" cx="27.5" fill="url(#d)"/>
    <path d="M30.25 13.18l-5 8.672A2.476 2.476 0 0 1 26.5 24h10c0-4.633-2.512-8.66-6.25-10.82" fill="#f9f9f9" fill-opacity=".2"/>
  </g>
</svg>

<svg xmlns="http://www.w3.org/2000/svg" xmlns:xlink="http://www.w3.org/1999/xlink" viewBox="0 0 48 48">
 <defs>
  <linearGradient id="linearGradient3764" x1="1" x2="47" gradientUnits="userSpaceOnUse" gradientTransform="matrix(0,-1,1,0,-1.5e-6,47.999998)">
   <stop style="stop-color:#96d250;stop-opacity:1"/>
   <stop offset="1" style="stop-color:#a0d660;stop-opacity:1"/>
  </linearGradient>
  <radialGradient xlink:href="#linearGradient4306" id="radialGradient4312" cx="19.4" cy="24" r="2" gradientUnits="userSpaceOnUse" gradientTransform="translate(4.6000004,1.1e-6)"/>
  <linearGradient id="linearGradient4306">
   <stop style="stop-color:#fff;stop-opacity:0.196"/>
   <stop offset="1" style="stop-color:#fff;stop-opacity:0.098"/>
  </linearGradient>
  <radialGradient xlink:href="#linearGradient4306" id="radialGradient4322" cx="17.5" cy="20.5" r="3.75" gradientUnits="userSpaceOnUse" gradientTransform="translate(10,3e-7)"/>
 </defs>
 <g>
  <path d="m 36.31 5 c 5.859 4.062 9.688 10.831 9.688 18.5 c 0 12.426 -10.07 22.5 -22.5 22.5 c -7.669 0 -14.438 -3.828 -18.5 -9.688 c 1.037 1.822 2.306 3.499 3.781 4.969 c 4.085 3.712 9.514 5.969 15.469 5.969 c 12.703 0 23 -10.298 23 -23 c 0 -5.954 -2.256 -11.384 -5.969 -15.469 c -1.469 -1.475 -3.147 -2.744 -4.969 -3.781 z m 4.969 3.781 c 3.854 4.113 6.219 9.637 6.219 15.719 c 0 12.703 -10.297 23 -23 23 c -6.081 0 -11.606 -2.364 -15.719 -6.219 c 4.16 4.144 9.883 6.719 16.219 6.719 c 12.703 0 23 -10.298 23 -23 c 0 -6.335 -2.575 -12.06 -6.719 -16.219 z" style="opacity:0.05"/>
  <path d="m 41.28 8.781 c 3.712 4.085 5.969 9.514 5.969 15.469 c 0 12.703 -10.297 23 -23 23 c -5.954 0 -11.384 -2.256 -15.469 -5.969 c 4.113 3.854 9.637 6.219 15.719 6.219 c 12.703 0 23 -10.298 23 -23 c 0 -6.081 -2.364 -11.606 -6.219 -15.719 z" style="opacity:0.1"/>
  <path d="m 31.25 2.375 c 8.615 3.154 14.75 11.417 14.75 21.13 c 0 12.426 -10.07 22.5 -22.5 22.5 c -9.708 0 -17.971 -6.135 -21.12 -14.75 a 23 23 0 0 0 44.875 -7 a 23 23 0 0 0 -16 -21.875 z" style="opacity:0.2"/>
 </g>
 <g>
  <path d="m 24 1 c 12.703 0 23 10.297 23 23 c 0 12.703 -10.297 23 -23 23 -12.703 0 -23 -10.297 -23 -23 0 -12.703 10.297 -23 23 -23 z" style="fill:url(#linearGradient3764);fill-opacity:1"/>
 </g>
 <g>
  <path d="m 40.03 7.531 c 3.712 4.084 5.969 9.514 5.969 15.469 0 12.703 -10.297 23 -23 23 c -5.954 0 -11.384 -2.256 -15.469 -5.969 4.178 4.291 10.01 6.969 16.469 6.969 c 12.703 0 23 -10.298 23 -23 0 -6.462 -2.677 -12.291 -6.969 -16.469 z" style="opacity:0.1"/>
 </g>
 <path d="m 40 25 c 0 8.285 -6.715 15 -15 15 -8.285 0 -15 -6.715 -15 -15 0 -8.285 6.715 -15 15 -15 8.285 0 15 6.715 15 15 m 0 0" style="fill:#000;opacity:0.1;fill-opacity:1;stroke:none;fill-rule:nonzero"/>
 <g>
  <g>
   <path d="m 39 24 c 0 8.285 -6.715 15 -15 15 -8.285 0 -15 -6.715 -15 -15 0 -8.285 6.715 -15 15 -15 8.285 0 15 6.715 15 15 m 0 0" style="fill:#333;fill-opacity:1;stroke:none;fill-rule:nonzero"/>
   <path d="m 36.5 24 c 0 6.906 -5.598 12.5 -12.5 12.5 -6.902 0 -12.5 -5.598 -12.5 -12.5 0 -6.902 5.598 -12.5 12.5 -12.5 6.906 0 12.5 5.598 12.5 12.5 m 0 0" style="fill:#45a326;fill-opacity:1;stroke:none;fill-rule:nonzero"/>
   <path d="M 24,24 24,11.5 25.25,24 M 24,24" style="fill:#784420;fill-opacity:1;stroke:none;fill-rule:nonzero"/>
   <path d="M 24,24 11.5,24 24,22.754 M 24,24" style="fill:#784420;fill-opacity:1;stroke:none;fill-rule:nonzero"/>
   <path d="M 24,24 27.234,36.07 22.793,24.32 M 24,23.996" style="fill:#333;fill-opacity:1;stroke:none;fill-rule:nonzero"/>
   <path d="M 24,24 20.766,11.93 25.207,23.68 M 24,24.004" style="fill:#333;fill-opacity:1;stroke:none;fill-rule:nonzero"/>
   <path d="M 24,24 36.07,20.766 24.32,25.207 M 23.996,24" style="fill:#333;fill-opacity:1;stroke:none;fill-rule:nonzero"/>
   <path d="M 24,24 11.93,27.238 23.68,22.797 M 24.004,24" style="fill:#333;fill-opacity:1;stroke:none;fill-rule:nonzero"/>
   <path d="M 24,24 30.25,34.824 22.918,24.625 M 24,24" style="fill:#333;fill-opacity:1;stroke:none;fill-rule:nonzero"/>
   <path d="M 24,24 17.75,13.176 25.082,23.375 M 24,24" style="fill:#333;fill-opacity:1;stroke:none;fill-rule:nonzero"/>
   <path d="M 24,24 34.824219,17.75 24.625,25.082031 M 24,24" style="fill:#333;fill-opacity:1;stroke:none;fill-rule:nonzero"/>
   <path d="M 24,24 13.176,30.25 23.375,22.922 M 24,24" style="fill:#333;fill-opacity:1;stroke:none;fill-rule:nonzero"/>
   <path d="m 24,24 8.84,8.84 -9.723,-7.957 M 24,24" style="fill:#784420;fill-opacity:1;stroke:none;fill-rule:nonzero"/>
   <path d="m 24,24 -8.84,-8.84 9.723,7.957 M 24,24" style="fill:#784420;fill-opacity:1;stroke:none;fill-rule:nonzero"/>
   <path d="m 24,24 8.84,-8.84 -7.957,9.723 M 24,24" style="fill:#784420;fill-opacity:1;stroke:none;fill-rule:nonzero"/>
   <path d="m 24,24 -8.84,8.836 7.957,-9.723 M 24,24" style="fill:#784420;fill-opacity:1;stroke:none;fill-rule:nonzero"/>
   <path d="M 24,24 34.824,30.25 23.375,25.082 M 24,24" style="fill:#333;fill-opacity:1;stroke:none;fill-rule:nonzero"/>
   <path d="M 24,24 13.176,17.75 24.625,22.918 M 24,24" style="fill:#333;fill-opacity:1;stroke:none;fill-rule:nonzero"/>
   <path d="M 24,24 30.25,13.175781 25.082031,24.625 M 24,24" style="fill:#333;fill-opacity:1;stroke:none;fill-rule:nonzero"/>
   <path d="M 24,24 17.75,34.824 22.918,23.375 M 24,24" style="fill:#333;fill-opacity:1;stroke:none;fill-rule:nonzero"/>
   <path d="M 24,24 36.07,27.234 23.672,25.207 M 23.996,24" style="fill:#333;fill-opacity:1;stroke:none;fill-rule:nonzero"/>
   <path d="M 24,24 11.93,20.766 24.328,22.793 M 24.004,24" style="fill:#333;fill-opacity:1;stroke:none;fill-rule:nonzero"/>
   <path d="M 24,24 27.234,11.93 25.207,24.328 M 24,24.004" style="fill:#333;fill-opacity:1;stroke:none;fill-rule:nonzero"/>
   <path d="M 24,24 20.766,36.07 22.793,23.675 M 24,23.999" style="fill:#333;fill-opacity:1;stroke:none;fill-rule:nonzero"/>
   <path d="m 23.993 24.06 12.496 0 -12.499 1.249 m 0 -1.25" style="fill:#784420;fill-opacity:1;stroke:none;fill-rule:nonzero"/>
   <path d="m 23.993 24.06 0 12.496 -1.249 -12.499 m 1.25 0" style="fill:#784420;fill-opacity:1;stroke:none;fill-rule:nonzero"/>
   <path d="m 30.25 24 c 0 3.453 -2.797 6.25 -6.25 6.25 -3.453 0 -6.25 -2.797 -6.25 -6.25 0 -3.453 2.801 -6.25 6.25 -6.25 3.453 0 6.25 2.801 6.25 6.25 m 0 0" style="fill:#333;fill-opacity:1;stroke:none;fill-rule:nonzero"/>
   <path d="m 29 24 c 0 2.762 -2.238 5 -5 5 -2.762 0 -5 -2.238 -5 -5 0 -2.762 2.238 -5 5 -5 2.762 0 5 2.238 5 5 m 0 0" style="fill:#aa8600;fill-opacity:1;stroke:none;fill-rule:nonzero"/>
  </g>
  <circle r="2" cy="24" cx="24" style="fill:url(#radialGradient4312);fill-opacity:1;stroke:none;fill-rule:evenodd"/>
  <circle r="3.75" cy="20.5" cx="27.5" style="fill:url(#radialGradient4322);fill-opacity:1;stroke:none"/>
  <path d="m 30.25 13.18 -5 8.672 c 0.746 0.434 1.25 1.223 1.25 2.148 l 10 0 c 0 -4.633 -2.512 -8.66 -6.25 -10.82" style="fill:#f9f9f9;fill-opacity:0.2;stroke:none;fill-rule:nonzero"/>
 </g>
</svg>
